!!!OTL: Bergelein (2-58) S. 182
!!!id: P0931
**kern
*clefG2
*k[f#]
*G:
{16g
=1
16g
4.b
8g
8b
8dd
=2
8.cc
16b
2a}
=3
{4d
4f#
4dd
=4
4.b
8a
4g}
=5
{8.d
16d
4d
4g
=6
8.e
16e
8e
8f#}
=7
{4g
=8
4f#
4a
4dd
=9
8.b
8a
16b
8cc
4dd}
=10
{8.d
16d
4d
4g
=11
8.e
16e
8e
8f#
4g}
=12
{4f#
4a
4dd
=13
2b}
4r
==
*-
!!!minrhy: 16
!!!meters: 3/4 ]  ZZ[6
!!!cut: Bergelein (2-58) S. 182
!!!reg: Lothringen
!!!trd: PINCK, Louis: Verklingende Weisen, Bd 2, Metz 1928
!!!rhy1:   X__.X_X_X_  X_.XX___
!!!rhy2: X__X__X__  X__.X_X__
!!!key: P0931  16  G 3/4 ]  ZZ[6
!!!mod: HEPTATONIK IONISCH]  AMBITUS[8
!!!kad: 21-7513
!!!akz: 34_-53_-5-6_-73_-5-6_-73_
!!!fot: 'a__b__c__d__cv_e__
!!!for: 'a__b__c__d__cw_bw_
!!!fok: 'Sd_^a_/__~a_~a_^a_
!! PHRAS[VORWIEGEND VOLLTAKTIG]
!!!fkt: ???, J&auml;gerei
!! LOTH VKL
!! PR[8] 2K[5] 2G[25] 3K[3] 3G[5] 4A[3] 4Ü[0] 5A[2] 6K[0] 6G[0]
!! 7K[0] 7G[0] 8A[0] MEHR[0] SI[44] ABS[59] SR[31] SP[14]
!! ST[24] 2k[7] 2g[31] 3k[2] 3g[2] 4d[3] 4ü[0] 5d[3] 6k[0] 6g[0]
!! 7k[0] 7g[0] 8d[0] mehr[0] si[47] dm[-3] sr[37] sp[10]
!! 1F[48] 2F[52] 3F[0] 4F[0] LF[0] 2P[0] 3P[0] 4P[0] TRI[0] DF[2] AB[63]
!! TF[0] U3K[0] U3[0] U4[0] U4Ü[0] U5[0] U6K[0] U6[0] U7K[0] U7[0]
!! N1[10] N2K[0] N2[20] N3K[0] N3[27] N4[12] N4Ü[0] N5[23] N6K[0] N6[5]
!!!n7k: 0] N7[0] O1[3] O2K[0] O2[0] O3K[0] O3[0] HÖ[0
!!!RNB: symbol: &auml;      = a umlaut  (UTF-8: Å„)
